assets/browsers.svg

<svg viewBox="0 0 512 512" xmlns="http://www.w3.org/2000/svg"><path d="M471.716 72.149C440.587 32.466 395.91 7.323 345.913 1.353c-49.94-5.964-99.209 7.922-138.731 39.099a188.76 188.76 0 00-26.308 25.215l6.425 253.498c30.162 31.853 70.08 51.993 114.126 57.253a190.947 190.947 0 0022.651 1.353c42.013-.001 82.554-14.005 116.079-40.452 81.602-64.373 95.76-183.328 31.561-265.17z" fill="#7ed8f6"/><path d="M345.913 1.353A190.909 190.909 0 00323.669.011v377.754c.136 0 .272.006.407.006 42.013-.001 82.554-14.005 116.079-40.452 22.477-17.732 39.837-39.605 51.852-63.703L399.884 16.091C382.95 8.605 364.812 3.609 345.913 1.353z" fill="#66c0ee"/><path d="M471.716 72.149c-19.362-24.684-43.969-43.737-71.835-56.055l-44.969 56.138a42.86 42.86 0 00-9.376 24.108l-4.131 62.513c-1.429 21.627 13.514 41.017 34.759 45.103l32.953 6.34c6.529 1.256 11.019 7.228 10.442 13.892-2.006 23.191 14.488 43.583 37.547 46.425l23.553 2.904c.357.044 6.278.075 11.337.093 31.603-63.387 26.235-142.163-20.28-201.461z" fill="#00aa95"/><path d="M170.342 298.544zm-2.442-3.518c-.431-.636-.862-1.272-1.285-1.912.423.64.853 1.276 1.285 1.912zm-2.216-3.344c-13.785-21.289-22.879-44.744-27.265-68.894a187.717 187.717 0 0027.265 68.894zm-28.271-74.978c-.045-.304-.087-.609-.131-.914.044.305.086.61.131.914zm.722 4.527c-.09-.52-.17-1.042-.256-1.563.085.521.166 1.042.256 1.563zm-1.382-9.436l-.001-.009.001.009zm36.169 90.291c-.32-.428-.633-.861-.949-1.291.317.43.629.863.949 1.291z" fill="#7ed8f6"/><g fill="#00cc76"><path d="M169.187 296.901zm6.437 8.72zm-3.65-4.826zm-34.692-85.004zm29.333 77.323c-.315-.476-.622-.955-.931-1.432.309.477.617.956.931 1.432zm-28.736-73.446zm.539 3.12c-.094-.519-.194-1.038-.283-1.557.09.519.189 1.038.283 1.557z"/><path d="M222.135 307.063l22.723-19.47c10.011-8.577 16.383-20.521 17.943-33.631 2.198-18.482-5.654-36.912-20.492-48.095l-7.399-5.577c-8.362-6.303-11.23-17.41-6.976-27.011l11.534-26.029c11.043-24.923 1.502-53.721-22.194-66.988-6.844-3.833-23.996-10.837-36.387-14.586-35.089 40.856-50.372 94.286-44.134 146.111l.001.006c.161 1.336.341 2.668.53 3.998.044.305.086.609.131.914.145.989.305 1.976.466 2.963.086.521.166 1.043.256 1.563.089.52.19 1.038.283 1.557 4.386 24.15 13.481 47.605 27.265 68.894.31.478.617.957.931 1.432.423.64.854 1.276 1.285 1.912a178.13 178.13 0 002.443 3.518 176.09 176.09 0 001.632 2.251c.316.43.629.863.949 1.291a191.04 191.04 0 002.701 3.535 192.384 192.384 0 0011.685 13.54c4.199-.03 8.569-.076 8.971-.138 9.507-1.479 18.447-5.614 25.853-11.96z"/></g><path d="M200.007 357.26l-45.579-45.709a15.015 15.015 0 00-21.268 0L13.848 431.201c-18.397 18.45-18.397 48.469 0 66.919C22.773 507.071 34.644 512 47.272 512s24.499-4.929 33.424-13.88l119.311-119.651c5.845-5.862 5.845-15.348 0-21.209z" fill="#47568c"/><path d="M200.007 357.26l-22.72-22.784L13.748 498.014c.034.035.065.071.1.105C22.773 507.071 34.643 512 47.272 512s24.499-4.929 33.424-13.88l119.311-119.651c5.845-5.862 5.845-15.348 0-21.209z" fill="#29376d"/><ellipse cx="224.674" cy="286.752" fill="#d9f2ff" rx="111.223" ry="111.541"/><path d="M303.598 208.165L146.084 365.679c43.44 43.503 113.82 43.485 157.237-.055 43.342-43.466 43.431-113.877.277-157.459z" fill="#c4e1ff"/><path d="M224.674 413.311c-.002 0 .002 0 0 0-33.729 0-65.436-13.169-89.282-37.083-49.197-49.338-49.197-129.614 0-178.952 23.845-23.914 55.552-37.083 89.281-37.083s65.436 13.169 89.282 37.083c49.197 49.338 49.197 129.614 0 178.952-23.844 23.911-55.554 37.083-89.281 37.083zm0-223.082c-25.689 0-49.843 10.035-68.012 28.256-37.535 37.642-37.535 98.892 0 136.534 18.169 18.221 42.323 28.256 68.012 28.256s49.843-10.035 68.013-28.256c37.535-37.642 37.535-98.892 0-136.534-18.17-18.221-42.324-28.256-68.013-28.256zm78.647 175.394h.01z" fill="#fed843"/><path d="M314.217 197.545l-21.239 21.239c37.24 37.667 37.145 98.691-.291 136.234-18.169 18.221-42.324 28.256-68.013 28.256-25.67 0-49.807-10.02-67.971-28.215l-21.239 21.239c23.837 23.869 55.514 37.013 89.209 37.013h.001c33.726 0 65.437-13.171 89.281-37.083 49.108-49.249 49.193-129.323.262-178.683z" fill="#fabe2c"/></svg>

<svg viewBox="0 0 512 512" xmlns="http://www.w3.org/2000/svg"><path d="M471.716 72.149C440.587 32.466 395.91 7.323 345.913 1.353c-49.94-5.964-99.209 7.922-138.731 39.099a188.76 188.76 0 00-26.308 25.215l6.425 253.498c30.162 31.853 70.08 51.993 114.126 57.253a190.947 190.947 0 0022.651 1.353c42.013-.001 82.554-14.005 116.079-40.452 81.602-64.373 95.76-183.328 31.561-265.17z" fill="#7ed8f6"/><path d="M345.913 1.353A190.909 190.909 0 00323.669.011v377.754c.136 0 .272.006.407.006 42.013-.001 82.554-14.005 116.079-40.452 22.477-17.732 39.837-39.605 51.852-63.703L399.884 16.091C382.95 8.605 364.812 3.609 345.913 1.353z" fill="#66c0ee"/><path d="M471.716 72.149c-19.362-24.684-43.969-43.737-71.835-56.055l-44.969 56.138a42.86 42.86 0 00-9.376 24.108l-4.131 62.513c-1.429 21.627 13.514 41.017 34.759 45.103l32.953 6.34c6.529 1.256 11.019 7.228 10.442 13.892-2.006 23.191 14.488 43.583 37.547 46.425l23.553 2.904c.357.044 6.278.075 11.337.093 31.603-63.387 26.235-142.163-20.28-201.461z" fill="#00aa95"/><path d="M170.342 298.544zM167.9 295.026c-.431-.636-.862-1.272-1.285-1.912.423.64.853 1.276 1.285 1.912zM165.684 291.682c-13.785-21.289-22.879-44.744-27.265-68.894a187.717 187.717 0 0027.265 68.894zM137.413 216.704c-.045-.304-.087-.609-.131-.914.044.305.086.61.131.914zM138.135 221.231c-.09-.52-.17-1.042-.256-1.563.085.521.166 1.042.256 1.563zM136.753 211.795l-.001-.009.001.009zM172.922 302.086c-.32-.428-.633-.861-.949-1.291.317.43.629.863.949 1.291z" fill="#7ed8f6"/><g fill="#00cc76"><path d="M169.187 296.901zM175.624 305.621zM171.974 300.795zM137.282 215.791zM166.615 293.114c-.315-.476-.622-.955-.931-1.432.309.477.617.956.931 1.432zM137.879 219.668zM138.418 222.788c-.094-.519-.194-1.038-.283-1.557.09.519.189 1.038.283 1.557z"/><path d="M222.135 307.063l22.723-19.47c10.011-8.577 16.383-20.521 17.943-33.631 2.198-18.482-5.654-36.912-20.492-48.095l-7.399-5.577c-8.362-6.303-11.23-17.41-6.976-27.011l11.534-26.029c11.043-24.923 1.502-53.721-22.194-66.988-6.844-3.833-23.996-10.837-36.387-14.586-35.089 40.856-50.372 94.286-44.134 146.111l.001.006c.161 1.336.341 2.668.53 3.998.044.305.086.609.131.914.145.989.305 1.976.466 2.963.086.521.166 1.043.256 1.563.089.52.19 1.038.283 1.557 4.386 24.15 13.481 47.605 27.265 68.894.31.478.617.957.931 1.432.423.64.854 1.276 1.285 1.912a178.13 178.13 0 002.443 3.518 176.09 176.09 0 001.632 2.251c.316.43.629.863.949 1.291a191.04 191.04 0 002.701 3.535 192.384 192.384 0 0011.685 13.54c4.199-.03 8.569-.076 8.971-.138 9.507-1.479 18.447-5.614 25.853-11.96z"/></g><g><path d="M200.007 357.26l-45.579-45.709a15.015 15.015 0 00-21.268 0L13.848 431.201c-18.397 18.45-18.397 48.469 0 66.919C22.773 507.071 34.644 512 47.272 512s24.499-4.929 33.424-13.88l119.311-119.651c5.845-5.862 5.845-15.348 0-21.209z" fill="#47568c"/><path d="M200.007 357.26l-22.72-22.784L13.748 498.014c.034.035.065.071.1.105C22.773 507.071 34.643 512 47.272 512s24.499-4.929 33.424-13.88l119.311-119.651c5.845-5.862 5.845-15.348 0-21.209z" fill="#29376d"/><ellipse cx="224.674" cy="286.752" fill="#d9f2ff" rx="111.223" ry="111.541"/><path d="M303.598 208.165L146.084 365.679c43.44 43.503 113.82 43.485 157.237-.055 43.342-43.466 43.431-113.877.277-157.459z" fill="#c4e1ff"/><path d="M224.674 413.311c-.002 0 .002 0 0 0-33.729 0-65.436-13.169-89.282-37.083-49.197-49.338-49.197-129.614 0-178.952 23.845-23.914 55.552-37.083 89.281-37.083s65.436 13.169 89.282 37.083c49.197 49.338 49.197 129.614 0 178.952-23.844 23.911-55.554 37.083-89.281 37.083zm0-223.082c-25.689 0-49.843 10.035-68.012 28.256-37.535 37.642-37.535 98.892 0 136.534 18.169 18.221 42.323 28.256 68.012 28.256s49.843-10.035 68.013-28.256c37.535-37.642 37.535-98.892 0-136.534-18.17-18.221-42.324-28.256-68.013-28.256zm78.647 175.394h.01z" fill="#fed843"/><path d="M314.217 197.545l-21.239 21.239c37.24 37.667 37.145 98.691-.291 136.234-18.169 18.221-42.324 28.256-68.013 28.256-25.67 0-49.807-10.02-67.971-28.215l-21.239 21.239c23.837 23.869 55.514 37.013 89.209 37.013h.001c33.726 0 65.437-13.171 89.281-37.083 49.108-49.249 49.193-129.323.262-178.683z" fill="#fabe2c"/></g></svg>
